images/instag.svg

<svg width="18" height="18" viewBox="0 0 18 18" fill="none" xmlns="http://www.w3.org/2000/svg">
<path opacity="0.6" fill-rule="evenodd" clip-rule="evenodd" d="M5.28955 0.054C6.24927 0.00981817 6.55527 0 9 0C11.4447 0 11.7507 0.0106364 12.7096 0.054C13.6685 0.0973636 14.3231 0.250364 14.8958 0.472091C15.4955 0.698727 16.0396 1.053 16.4896 1.51118C16.9478 1.96036 17.3013 2.50364 17.5271 3.10418C17.7496 3.67691 17.9018 4.33145 17.946 5.28873C17.9902 6.25009 18 6.55609 18 9C18 11.4447 17.9894 11.7507 17.946 12.7105C17.9026 13.6677 17.7496 14.3223 17.5271 14.895C17.3013 15.4956 16.9472 16.0398 16.4896 16.4896C16.0396 16.9478 15.4955 17.3013 14.8958 17.5271C14.3231 17.7496 13.6685 17.9018 12.7113 17.946C11.7507 17.9902 11.4447 18 9 18C6.55527 18 6.24927 17.9894 5.28955 17.946C4.33227 17.9026 3.67773 17.7496 3.105 17.5271C2.50439 17.3012 1.96022 16.9472 1.51036 16.4896C1.05249 16.0402 0.698167 15.4963 0.472091 14.8958C0.250364 14.3231 0.0981818 13.6685 0.054 12.7113C0.00981817 11.7499 0 11.4439 0 9C0 6.55527 0.0106364 6.24927 0.054 5.29036C0.0973636 4.33145 0.250364 3.67691 0.472091 3.10418C0.6985 2.5037 1.0531 1.9598 1.51118 1.51036C1.9604 1.05259 2.50402 0.698272 3.10418 0.472091C3.67691 0.250364 4.33145 0.0981818 5.28873 0.054H5.28955ZM12.6368 1.674C11.6877 1.63064 11.403 1.62164 9 1.62164C6.597 1.62164 6.31227 1.63064 5.36318 1.674C4.48527 1.71409 4.00909 1.86055 3.69164 1.98409C3.27191 2.14773 2.97164 2.34164 2.65664 2.65664C2.35804 2.94713 2.12824 3.30078 1.98409 3.69164C1.86055 4.00909 1.71409 4.48527 1.674 5.36318C1.63064 6.31227 1.62164 6.597 1.62164 9C1.62164 11.403 1.63064 11.6877 1.674 12.6368C1.71409 13.5147 1.86055 13.9909 1.98409 14.3084C2.12809 14.6986 2.358 15.0529 2.65664 15.3434C2.94709 15.642 3.30136 15.8719 3.69164 16.0159C4.00909 16.1395 4.48527 16.2859 5.36318 16.326C6.31227 16.3694 6.59618 16.3784 9 16.3784C11.4038 16.3784 11.6877 16.3694 12.6368 16.326C13.5147 16.2859 13.9909 16.1395 14.3084 16.0159C14.7281 15.8523 15.0284 15.6584 15.3434 15.3434C15.642 15.0529 15.8719 14.6986 16.0159 14.3084C16.1395 13.9909 16.2859 13.5147 16.326 12.6368C16.3694 11.6877 16.3784 11.403 16.3784 9C16.3784 6.597 16.3694 6.31227 16.326 5.36318C16.2859 4.48527 16.1395 4.00909 16.0159 3.69164C15.8523 3.27191 15.6584 2.97164 15.3434 2.65664C15.0528 2.35806 14.6992 2.12826 14.3084 1.98409C13.9909 1.86055 13.5147 1.71409 12.6368 1.674ZM7.85045 11.7745C8.49245 12.0417 9.20731 12.0778 9.87294 11.8765C10.5386 11.6752 11.1137 11.2491 11.5 10.6709C11.8864 10.0927 12.06 9.39835 11.9913 8.70636C11.9226 8.01437 11.6157 7.3677 11.1232 6.87682C10.8092 6.56303 10.4295 6.32276 10.0115 6.1733C9.59355 6.02385 9.14762 5.96893 8.70586 6.0125C8.2641 6.05608 7.83749 6.19705 7.45675 6.42529C7.07601 6.65352 6.75061 6.96334 6.50397 7.33242C6.25734 7.70151 6.09561 8.12069 6.03042 8.55979C5.96524 8.99888 5.99821 9.44697 6.12699 9.87179C6.25576 10.2966 6.47712 10.6876 6.77514 11.0166C7.07315 11.3456 7.4404 11.6044 7.85045 11.7745ZM5.72891 5.72891C6.15847 5.29934 6.66844 4.95859 7.2297 4.72611C7.79095 4.49363 8.3925 4.37398 9 4.37398C9.6075 4.37398 10.209 4.49363 10.7703 4.72611C11.3316 4.95859 11.8415 5.29934 12.2711 5.72891C12.7007 6.15847 13.0414 6.66844 13.2739 7.2297C13.5064 7.79095 13.626 8.3925 13.626 9C13.626 9.6075 13.5064 10.209 13.2739 10.7703C13.0414 11.3316 12.7007 11.8415 12.2711 12.2711C11.4035 13.1386 10.2269 13.626 9 13.626C7.7731 13.626 6.59646 13.1386 5.72891 12.2711C4.86136 11.4035 4.37398 10.2269 4.37398 9C4.37398 7.7731 4.86136 6.59646 5.72891 5.72891ZM14.652 5.06291C14.7584 4.96249 14.8437 4.84174 14.9026 4.7078C14.9616 4.57385 14.993 4.42945 14.9952 4.28312C14.9973 4.1368 14.97 3.99154 14.915 3.85594C14.86 3.72033 14.7784 3.59715 14.6749 3.49367C14.5714 3.39019 14.4482 3.30853 14.3126 3.25351C14.177 3.1985 14.0317 3.17125 13.8854 3.17339C13.7391 3.17552 13.5947 3.20699 13.4607 3.26593C13.3268 3.32488 13.2061 3.4101 13.1056 3.51655C12.9103 3.72357 12.8034 3.99855 12.8076 4.28312C12.8117 4.5677 12.9266 4.83945 13.1279 5.04069C13.3291 5.24193 13.6008 5.35682 13.8854 5.36097C14.17 5.36512 14.445 5.2582 14.652 5.06291Z" fill="white"/>
</svg>

<svg width="18" height="18" fill="none" xmlns="http://www.w3.org/2000/svg"><path opacity=".6" fill-rule="evenodd" clip-rule="evenodd" d="M5.29.054C6.25.01 6.555 0 9 0c2.445 0 2.75.01 3.71.054.958.043 1.613.196 2.186.418.6.227 1.144.581 1.594 1.04.458.448.811.992 1.037 1.592.223.573.375 1.227.419 2.185C17.99 6.25 18 6.556 18 9c0 2.445-.01 2.75-.054 3.71-.043.958-.196 1.612-.419 2.185-.226.6-.58 1.145-1.037 1.595-.45.458-.994.811-1.594 1.037-.573.223-1.228.375-2.185.419-.96.044-1.266.054-3.711.054s-2.75-.01-3.71-.054c-.958-.043-1.612-.196-2.185-.419A4.416 4.416 0 0 1 1.51 16.49a4.41 4.41 0 0 1-1.038-1.594C.25 14.323.098 13.668.054 12.71.01 11.75 0 11.444 0 9c0-2.445.01-2.75.054-3.71.043-.959.196-1.613.418-2.186.227-.6.581-1.144 1.04-1.594.448-.457.992-.812 1.592-1.038C3.677.25 4.331.098 5.29.054Zm7.347 1.62c-.95-.043-1.234-.052-3.637-.052s-2.688.009-3.637.052c-.878.04-1.354.187-1.671.31-.42.164-.72.358-1.035.673-.299.29-.529.644-.673 1.035-.123.317-.27.793-.31 1.671-.043.95-.052 1.234-.052 3.637s.009 2.688.052 3.637c.04.878.187 1.354.31 1.671.144.39.374.745.673 1.035.29.299.644.529 1.035.673.317.124.793.27 1.671.31.95.043 1.233.052 3.637.052s2.688-.009 3.637-.052c.878-.04 1.354-.186 1.671-.31.42-.164.72-.358 1.035-.673.299-.29.529-.644.673-1.035.124-.317.27-.793.31-1.671.043-.95.052-1.234.052-3.637s-.009-2.688-.052-3.637c-.04-.878-.186-1.354-.31-1.671a2.794 2.794 0 0 0-.673-1.035 2.793 2.793 0 0 0-1.035-.673c-.317-.123-.793-.27-1.671-.31Zm-4.787 10.1a3.002 3.002 0 1 0 2.162-5.6 3.003 3.003 0 0 0-2.162 5.6ZM5.73 5.73a4.626 4.626 0 1 1 6.542 6.542 4.626 4.626 0 0 1-6.542-6.542Zm8.923-.666a1.094 1.094 0 1 0-1.501-1.592 1.094 1.094 0 0 0 1.501 1.592Z" fill="#fff"/></svg>
